X:522
T:The Girl I Left Behind me
S:Bruce & Emmett's Drummers and Fifers Guide (1862), p. 52
M:2/4
L:1/16
K:D
%%MIDI program 72
%%MIDI transpose 8
%%MIDI ratio 3 1
cd|Te3d B2A2|GABG E2EF|G2GF GABc|d3c B(gfg)|Te3d B2A2|
GABG E2EG|FGAF D2EF|G4-G2::BA|GFGB d2ef|gfgd BdBG|
BdTd2 egfa|gaba gfed|Te3d B2A2|GABG E2EG|FGAF D2EF|G4-G2:|
